sources/design/Outline/൦.svg

<svg:svg xmlns:cc="http://creativecommons.org/ns#" xmlns:dc="http://purl.org/dc/elements/1.1/" xmlns:inkscape="http://www.inkscape.org/namespaces/inkscape" xmlns:rdf="http://www.w3.org/1999/02/22-rdf-syntax-ns#" xmlns:sodipodi="http://sodipodi.sourceforge.net/DTD/sodipodi-0.dtd" xmlns:svg="http://www.w3.org/2000/svg" xml:space="preserve" width="1000" height="1000" version="1.1" style="clip-rule:evenodd;fill-rule:evenodd;image-rendering:optimizeQuality;shape-rendering:geometricPrecision;text-rendering:geometricPrecision" viewBox="0 0 1000 1000" id="svg10" sodipodi:docname="൦.svg" inkscape:version="1.0.2 (e86c870879, 2021-01-15)"><svg:metadata id="metadata14"><rdf:RDF><cc:Work rdf:about=""><dc:format>image/svg+xml</dc:format><dc:type rdf:resource="http://purl.org/dc/dcmitype/StillImage" /><dc:title /></cc:Work></rdf:RDF></svg:metadata><sodipodi:namedview pagecolor="#ffffff" bordercolor="#666666" borderopacity="1" objecttolerance="10" gridtolerance="10" guidetolerance="10" inkscape:pageopacity="0" inkscape:pageshadow="2" inkscape:window-width="1920" inkscape:window-height="1007" id="namedview12" showgrid="false" inkscape:zoom="0.6002692" inkscape:cx="300.73619" inkscape:cy="419.36841" inkscape:window-x="1920" inkscape:window-y="0" inkscape:window-maximized="1" inkscape:current-layer="svg10" showguides="true" inkscape:guide-bbox="true" inkscape:document-rotation="0" inkscape:pagecheckerboard="0"><sodipodi:guide position="0,1000" orientation="0,1" id="guide16" inkscape:label="" inkscape:locked="true" inkscape:color="rgb(0,0,255)" /><sodipodi:guide position="1763.3122,2036.1693" orientation="1000,0" id="guide18" /><sodipodi:guide position="0,200" orientation="0,1" id="guide20" inkscape:label="base" inkscape:locked="true" inkscape:color="rgb(0,0,255)" /><inkscape:grid type="xygrid" id="grid24" originx="-473.37552" originy="-489.69235" /><sodipodi:guide position="0,0" orientation="0,1" id="guide34" inkscape:label="bottom" inkscape:locked="true" inkscape:color="rgb(0,0,255)" /><sodipodi:guide position="225.05109,1693.3186" orientation="0,1" id="guide44" inkscape:label="" inkscape:locked="false" inkscape:color="rgb(0,0,255)" /><sodipodi:guide position="0,900" orientation="0,1" id="guide46" inkscape:label="" inkscape:locked="true" inkscape:color="rgb(0,0,255)" /><sodipodi:guide position="517.86336,791.56462" orientation="-1,0" id="guide841" inkscape:label="width" inkscape:locked="false" inkscape:color="rgb(0,0,255)" /></sodipodi:namedview>
 <svg:defs id="defs4"><inkscape:path-effect effect="spiro" id="path-effect875" is_visible="true" lpeversion="1" /><inkscape:path-effect effect="spiro" id="path-effect871" is_visible="true" lpeversion="1" /><inkscape:path-effect effect="spiro" id="path-effect852" is_visible="true" lpeversion="1" /><inkscape:path-effect effect="spiro" id="path-effect850" is_visible="true" lpeversion="1" /><inkscape:path-effect effect="spiro" id="path-effect851" is_visible="true" lpeversion="1" />
  <svg:style type="text/css" id="style2">
   
    .fil0 {fill:#EF7F1A;fill-rule:nonzero}
   
  </svg:style>
 <inkscape:path-effect effect="spiro" id="path-effect1214" is_visible="true" lpeversion="1" /><inkscape:path-effect effect="spiro" id="path-effect1195" is_visible="true" lpeversion="1" /><inkscape:path-effect effect="spiro" id="path-effect992" is_visible="true" lpeversion="1" /><inkscape:path-effect effect="spiro" id="path-effect1060" is_visible="true" lpeversion="1" /><inkscape:path-effect effect="spiro" id="path-effect1047" is_visible="true" lpeversion="1" /><inkscape:path-effect effect="spiro" id="path-effect1085" is_visible="true" lpeversion="1" /><inkscape:path-effect effect="spiro" id="path-effect1286" is_visible="true" lpeversion="1" /><inkscape:path-effect effect="spiro" id="path-effect1305" is_visible="true" lpeversion="1" /></svg:defs>
 
<svg:g id="path849-3"><svg:path style="color:#000000;fill:#1a5fb4;fill-rule:nonzero;stroke-linecap:round;stroke-linejoin:round;-inkscape-stroke:none;paint-order:fill stroke markers" d="M 279.83594,65.320312 C 231.19101,64.581075 182.7463,79.034322 141.70703,104.55664 C 89.247156,137.18143 49.812073,186.00838 23.53125,239.65039 C -2.6726634999999987,293.13542 -16.062984999999998,350.94327999999996 -22.423828,408.04492 C -28.199208,459.89081999999996 -28.445161,513.3099 -18.904297,566.08398 C -9.3494367,618.93548 10.170796,670.94638 42.070312,715.93164 C 60.818394,742.37051 83.952651,766.48452 111.75,785.28711 C 139.61421,804.13492 171.9315,817.36864 206.45898,821.47656 C 245.31536,826.09952 284.077,818.82436 318.67773,803.76172 C 353.169,788.74673 383.18707,766.3232899999999 408.55469,740.50391 C 467.68828,680.3172 501.95461,601.96044 520.70898,523.29297 C 544.35351,424.1132 545.06529,314.23505 498.86914,218.53516 C 483.72028,187.15279 463.57284,157.55664 437.81445,132.60547 C 412.00838,107.6081 380.73462,87.558803 345.61719,76.132812 C 324.09929,69.131637 301.94727,65.656329 279.83594,65.320312 M 278.79102,125.51172 C 295.3298,125.68838 311.63892,128.17238 327.05273,133.1875 C 352.4209,141.44142 376.18758,156.44341 396.06836,175.70117 C 415.99683,195.00512999999998 432.33371,218.71954 444.83594,244.61914 C 483.00933,323.69911 483.70816,419.77152 462.34569999999997,509.37891 C 445.35097999999994,580.6653 414.65898999999996,648.67709 365.75390999999996,698.45312 C 344.83086,719.74879 320.79801,737.3992900000001 294.72851999999995,748.74805 C 268.76848999999993,760.04915 240.27829999999994,765.07687 213.54686999999996,761.89648 C 189.77494999999996,759.06821 166.13124999999997,749.63436 145.36522999999994,735.58789 C 124.53236,721.49619 106.2261,702.6794 91.013672,681.22656 C 65.091421,644.67055 48.367294,600.92574 40.138672,555.41016 C 31.896053,509.81716 31.915621,462.18878 37.207031,414.6875 C 43.030755,362.40761 55.194374,311.39763 77.412109,266.04883 C 99.552935,220.857 132.3934,181.0052 173.39258,155.50781 C 204.9091,135.90769 242.40569,125.12306 278.79102,125.51172 M 271.12109,213.20703 C 248.47529999999998,212.75681 226.06174,217.02437 205.27929999999998,225.10937 C 177.64706999999999,235.85915 153.41371999999998,253.06969 133.65624999999997,273.99414 C 94.20327599999997,315.77741000000003 74.04044299999998,370.20693 66.50195299999997,423.75781 C 59.267272999999975,475.15053 62.93029799999997,530.87823 88.05273399999997,580.35547 C 100.63822999999996,605.1419099999999 118.42368999999997,627.73564 141.22460999999998,645.19922 C 164.09754999999998,662.7179699999999 191.58319,674.63796 221.11914,677.9375 C 270.87859,683.49627 318.6286,663.97448 354.11523,632.91211 C 389.18049,602.21858 411.87595,561.85407 426.58008,520.92383 C 446.81854,464.58829999999995 453.97728,400.2169799999999 433.32812,340.04296999999997 C 422.98266,309.89509999999996 405.79045,281.6699 381.78906,259.24805 C 357.70469,236.74866999999998 327.26437,220.72707999999997 293.79297,215.26367 C 286.2447,214.0316 278.66969,213.35710999999998 271.12109000000004,213.20703 L 271.12109,213.20703 M 269.94531,273.21875 C 274.73535,273.30485 279.48026,273.72005 284.12695,274.47852 C 304.69343000000003,277.8355 324.90212,288.21584 340.82812,303.09375 C 356.83711,318.04918 369.14999,337.87683 376.57617,359.51758 C 391.47031,402.9208 386.89808,453.91671 370.11328,500.63867000000005 C 357.85238,534.76795 339.54337999999996,565.92633 314.59569999999997,587.76367 C 290.06940999999995,609.23217 257.2849,621.6045300000001 227.78124999999997,618.3085900000001 C 210.18372999999997,616.3427300000001 192.48779999999996,608.8857300000001 177.70897999999997,597.5664100000001 C 162.85814999999997,586.1919200000001 150.43715999999998,570.6926400000001 141.55077999999997,553.1914100000001 C 123.72945999999997,518.0933000000001 119.92832999999997,474.6575600000001 125.91601999999997,432.12305000000015 C 132.15712999999997,387.78826000000015 148.86911999999998,345.2778000000002 177.28124999999997,315.1875000000001 C 191.45632999999998,300.1751600000001 208.60291999999998,288.1972800000001 227.03319999999997,281.0273400000001 C 240.79763999999997,275.6725600000001 255.57519999999997,272.9603600000001 269.94530999999995,273.2187500000001 L 269.94531,273.21875" id="path26246" /></svg:g></svg:svg>

<svg:svg xmlns:cc="http://creativecommons.org/ns#" xmlns:dc="http://purl.org/dc/elements/1.1/" xmlns:inkscape="http://www.inkscape.org/namespaces/inkscape" xmlns:rdf="http://www.w3.org/1999/02/22-rdf-syntax-ns#" xmlns:sodipodi="http://sodipodi.sourceforge.net/DTD/sodipodi-0.dtd" xmlns:svg="http://www.w3.org/2000/svg" xml:space="preserve" width="1000" height="1000" version="1.1" style="clip-rule:evenodd;fill-rule:evenodd;image-rendering:optimizeQuality;shape-rendering:geometricPrecision;text-rendering:geometricPrecision" viewBox="0 0 1000 1000" id="svg10" sodipodi:docname="൦.svg" inkscape:version="1.0.2 (e86c870879, 2021-01-15)"><svg:metadata id="metadata14"><rdf:RDF><cc:Work rdf:about=""><dc:format>image/svg+xml</dc:format><dc:type rdf:resource="http://purl.org/dc/dcmitype/StillImage" /><dc:title /></cc:Work></rdf:RDF></svg:metadata><sodipodi:namedview pagecolor="#ffffff" bordercolor="#666666" borderopacity="1" objecttolerance="10" gridtolerance="10" guidetolerance="10" inkscape:pageopacity="0" inkscape:pageshadow="2" inkscape:window-width="1920" inkscape:window-height="1007" id="namedview12" showgrid="false" inkscape:zoom="0.6002692" inkscape:cx="300.73619" inkscape:cy="419.36841" inkscape:window-x="1920" inkscape:window-y="0" inkscape:window-maximized="1" inkscape:current-layer="svg10" showguides="true" inkscape:guide-bbox="true" inkscape:document-rotation="0" inkscape:pagecheckerboard="0"><sodipodi:guide position="0,1000" orientation="0,1" id="guide16" inkscape:label="" inkscape:locked="true" inkscape:color="rgb(0,0,255)" /><sodipodi:guide position="1763.3122,2036.1693" orientation="1000,0" id="guide18" /><sodipodi:guide position="0,200" orientation="0,1" id="guide20" inkscape:label="base" inkscape:locked="true" inkscape:color="rgb(0,0,255)" /><inkscape:grid type="xygrid" id="grid24" originx="-473.37552" originy="-489.69235" /><sodipodi:guide position="0,0" orientation="0,1" id="guide34" inkscape:label="bottom" inkscape:locked="true" inkscape:color="rgb(0,0,255)" /><sodipodi:guide position="225.05109,1693.3186" orientation="0,1" id="guide44" inkscape:label="" inkscape:locked="false" inkscape:color="rgb(0,0,255)" /><sodipodi:guide position="0,900" orientation="0,1" id="guide46" inkscape:label="" inkscape:locked="true" inkscape:color="rgb(0,0,255)" /><sodipodi:guide position="517.86336,791.56462" orientation="-1,0" id="guide841" inkscape:label="width" inkscape:locked="false" inkscape:color="rgb(0,0,255)" /></sodipodi:namedview>
 <svg:defs id="defs4"><inkscape:path-effect effect="spiro" id="path-effect875" is_visible="true" lpeversion="1" /><inkscape:path-effect effect="spiro" id="path-effect871" is_visible="true" lpeversion="1" /><inkscape:path-effect effect="spiro" id="path-effect852" is_visible="true" lpeversion="1" /><inkscape:path-effect effect="spiro" id="path-effect850" is_visible="true" lpeversion="1" /><inkscape:path-effect effect="spiro" id="path-effect851" is_visible="true" lpeversion="1" />
  <svg:style type="text/css" id="style2">
   
    .fil0 {fill:#EF7F1A;fill-rule:nonzero}
   
  </svg:style>
 <inkscape:path-effect effect="spiro" id="path-effect1214" is_visible="true" lpeversion="1" /><inkscape:path-effect effect="spiro" id="path-effect1195" is_visible="true" lpeversion="1" /><inkscape:path-effect effect="spiro" id="path-effect992" is_visible="true" lpeversion="1" /><inkscape:path-effect effect="spiro" id="path-effect1060" is_visible="true" lpeversion="1" /><inkscape:path-effect effect="spiro" id="path-effect1047" is_visible="true" lpeversion="1" /><inkscape:path-effect effect="spiro" id="path-effect1085" is_visible="true" lpeversion="1" /><inkscape:path-effect effect="spiro" id="path-effect1286" is_visible="true" lpeversion="1" /><inkscape:path-effect effect="spiro" id="path-effect1305" is_visible="true" lpeversion="1" /></svg:defs>
 
<svg:g id="path849-3"><svg:path style="color:#000000;fill:#1a5fb4;fill-rule:nonzero;stroke-linecap:round;stroke-linejoin:round;-inkscape-stroke:none" d="M 279.83594,65.320312 C 231.19101,64.581075 182.7463,79.034322 141.70703,104.55664 89.247156,137.18143 49.812073,186.00838 23.53125,239.65039 c -26.2039135,53.48503 -39.594235,111.29289 -45.955078,168.39453 -5.77538,51.8459 -6.021333,105.26498 3.519531,158.03906 9.5548603,52.8515 29.075093,104.8624 60.974609,149.84766 18.748082,26.43887 41.882339,50.55288 69.679688,69.35547 27.86421,18.84781 60.1815,32.08153 94.70898,36.18945 38.85638,4.62296 77.61802,-2.6522 112.21875,-17.71484 34.49127,-15.01499 64.50934,-37.43843 89.87696,-63.25781 C 467.68828,680.3172 501.95461,601.96044 520.70898,523.29297 544.35351,424.1132 545.06529,314.23505 498.86914,218.53516 483.72028,187.15279 463.57284,157.55664 437.81445,132.60547 412.00838,107.6081 380.73462,87.558803 345.61719,76.132812 324.09929,69.131637 301.94727,65.656329 279.83594,65.320312 Z m -1.04492,60.191408 c 16.53878,0.17666 32.8479,2.66066 48.26171,7.67578 25.36817,8.25392 49.13485,23.25591 69.01563,42.51367 19.92847,19.30396 36.26535,43.01837 48.76758,68.91797 38.17339,79.07997 38.87222,175.15238 17.50976,264.75977 -16.99472,71.28639 -47.68671,139.29818 -96.59179,189.07421 -20.92305,21.29567 -44.9559,38.94617 -71.02539,50.29493 -25.96003,11.3011 -54.45022,16.32882 -81.18165,13.14843 -23.77192,-2.82827 -47.41562,-12.26212 -68.18164,-26.30859 C 124.53236,721.49619 106.2261,702.6794 91.013672,681.22656 65.091421,644.67055 48.367294,600.92574 40.138672,555.41016 31.896053,509.81716 31.915621,462.18878 37.207031,414.6875 43.030755,362.40761 55.194374,311.39763 77.412109,266.04883 99.552935,220.857 132.3934,181.0052 173.39258,155.50781 204.9091,135.90769 242.40569,125.12306 278.79102,125.51172 Z m -7.66993,87.69531 c -22.64579,-0.45022 -45.05935,3.81734 -65.84179,11.90234 -27.63223,10.74978 -51.86558,27.96032 -71.62305,48.88477 -39.452974,41.78327 -59.615807,96.21279 -67.154297,149.76367 -7.23468,51.39272 -3.571655,107.12042 21.550781,156.59766 12.585496,24.78644 30.370956,47.38017 53.171876,64.84375 22.87294,17.51875 50.35858,29.43874 79.89453,32.73828 49.75945,5.55877 97.50946,-13.96302 132.99609,-45.02539 35.06526,-30.69353 57.76072,-71.05804 72.46485,-111.98828 20.23846,-56.33553 27.3972,-120.70685 6.74804,-180.88086 -10.34546,-30.14787 -27.53767,-58.37307 -51.53906,-80.79492 -24.08437,-22.49938 -54.52469,-38.52097 -87.99609,-43.98438 -7.54827,-1.23207 -15.12328,-1.90656 -22.67188,-2.05664 z m -1.17578,60.01172 c 4.79004,0.0861 9.53495,0.5013 14.18164,1.25977 20.56648,3.35698 40.77517,13.73732 56.70117,28.61523 16.00899,14.95543 28.32187,34.78308 35.74805,56.42383 14.89414,43.40322 10.32191,94.39913 -6.46289,141.12109 -12.2609,34.12928 -30.5699,65.28766 -55.51758,87.125 -24.52629,21.4685 -57.3108,33.84086 -86.81445,30.54492 -17.59752,-1.96586 -35.29345,-9.42286 -50.07227,-20.74218 -14.85083,-11.37449 -27.27182,-26.87377 -36.1582,-44.375 -17.82132,-35.09811 -21.62245,-78.53385 -15.63476,-121.06836 6.24111,-44.33479 22.9531,-86.84525 51.36523,-116.93555 14.17508,-15.01234 31.32167,-26.99022 49.75195,-34.16016 13.76444,-5.35478 28.542,-8.06698 42.91211,-7.80859 z" id="path26164" /></svg:g></svg:svg>
